X:1
T:Bears in the Garden
C:John & Megan Wobus
S:John Wobus composed 6/30/2002
M:2/4
R:reel
K:Ddor
|: DA, (3A,A,A, DA,FA, | GD (3DDD (3GAG FG | A4 ADDG | ADGD FDEC |
DA, (3A,A,A, DA,FA, | GD (3DDD (3GAG FG | A4 ADDG | AGFE D4:|
|: Gc (3ccc ecce | gfef gfga | fd (3ddd fdfg | agfa gfed |
cG (3GGG cGcd | edef  g2ag | fddg ddfe | dcAG FED2 :|
W:Copyright 2002 John & Megan Wobus, PGTPPCATPL AORR
